X: 081221
T: Hickey's (b)
S: "Johnny O'Leary of Sliabh Luachra" (#338)
Z: B.Black
L: 1/8
M: 4/4
R: reel
K: G
GzBG EFGE|FDFA dAFD|GzBG EFGA|BdAF GEEF|
(3GAG BG EFGE|FDFA dAFD|G2 BG EFGA|BdAF GE E2 ||
eB (3BcB efge|df (3dcd afdf|eB (3BcB efge|fedf e2 ef|
eB (3BcB efge|df (3dcd afdf|eB (3BcB eB (3BcB|ABde fdAF||
